X: 36709
T: Sheehan's
R: reel
M: 4/4
K: Gmajor
D|:"G"{EF}G2 BG DGBG|"D7"ABcA "G"BGGB|"Am"AGAB cABG|EAAG "D7"FDEF|
"G"{EF}G2 BG DGBd|"C"cBAB "D7"cdef|"G"gedB "C"{B}c2 Bc|"D7"dBcA "G"BG G2:|
|:"G"g2 bg dgbg|gbag fede|"D"f2 af dfaf|"G"gbag "D7"fedf|
"G"g2 bg dgbg|gbag "D7"fedf|"G"gedB "C"{B}c2 Bc|"D7"dBcA "G"BG G2:|

